X:1
T:Agora viniesse un viento
T:Agora viniesse un viento
T:Luys de Milan (1536)
C:Luys de Milan (1536)
%%score 1 { 2 3 4 }
L:1/8
Q:1/4=132
M:4/4
K:Emin
V:1 treble 
V:2 treble 
V:3 treble 
V:4 treble 
V:1
S B2 c2 d4 | e2 d2 d2 c2 | B4 B4 | B2 cB A4 | Bc d4 c2 | B4 A8!fine! |: e2 f2 g4 | f2 e2 e2 ^d2 | %8
w: A- go- ra|vi- nies- se un|vien- to|que me e- chas-|se a- cu- lla|den- tro.|A- go- ra|vi- nies- se un|
w: Y me hi-|sies- se tan con-|ten- to|que me e- chas-|se a- cu- lla|den- tro.|que me~e- chas-|se a- cu- lla|
 e4 e4 | B2 cB A4 | Bc d4 A2 |S B2 B2 A8 :| %12
w: vien- to|tan bue- * no|co- * mo quer-|* ri- a.|
w: den- tro|en fal- * das|de * mi a-|* mi- ga.|
V:2
 [^GB]2 [Ac]2 [=Gd]4 | [ce]2 d2 d2 [Ac]2 | e4 [Be]4 | [^GB]2 cB f=gaf | [Bg][ca] b2 d2 e2 | %5
 [Be]4 [A^c]8 |: [ce]2 [df]2 [dg]4 | [df]2 [Be]2 [ce]2 [B^d]2 | [Be]=d/c/ B/A/G/F/ E4 | %9
 [^GB]2 cB f=gaf | g2 ga b2 f2 | e2 e2 [A^c]8 :| %12
V:3
 x2 x2 x4 | x2 GA BG x2 | B/E/F/^G/A/B/c/A/ x4 | x2 A2 d4 | d2 d2 G2 A2- | A2 ^G2 x8 |: x2 x2 B4 | %7
 x2 x2 x2 x2 | x4 x4 | x2 A2 [Ad]4 | d2 d4 dc | BA B2 x8 :| %12
V:4
 [E,E]2 [A,E]2 [G,D]4 | [CG]2 [G,D]4 [A,E]2 | E,4 E,4 | [E,E]2 [A,E]2 [DA]4 | G,3 A, B,G, A,2 | %5
 E,4 [A,E]8 |: [CG]2 [DA]2 G,A,B,C | [DA]2 [EG]2 [A,A]2 [B,F]2 | E,8 | [E,E]2 [A,E]2 D4 | %10
 [GB][Ac] [GB]4 [DA]2 | E2 E2 [A,E]8 :| %12

